X:906
T:The Birks of Endermay
S:Andrew Small of Carrickfergus, NLS MS 21738
M:4/4
L:1/8
K:D
[V:1] (d/e/f/g/)| a3    b  (a<f)ed  |(e>d)ef    B3   d| A>BAF ({B}A2) D>E|     F2   A>B           A2
[V:2] (F/A/d/e/)| f3    g  (f<d)AF  | A>FAd     G3   F| F>GFD ({G}F2) D>E|     D2   F>G           F2
%
[V:1] (f>g)     | a3{c'}d' (af)ed   | gfed  ({c}B2)f>e|(d>B)(AF) (AB)de  | {de}f2  Te>d           d2:|
[V:2] (d>e)     | f3({a}b) (fd)AF   | edAF  ({A}G2)d>A|(F>G)FD   (FG)FA  |({FA}d2)(TA>F)          F2:|
%
[V:1] (A>G)     |(F>E)(FA) (B>A)(Bd)|(e>d)ef    B3   b| a>baf    (gf)ed  |     g>a (b/a/g/f/) ({f}e2)
[V:2] (F>E)     |(D>E)(DF) (G>F)GF  | A>FAd     G3   g| f>gfd     edAF   |     e>f (g/f/e/d/) ({d}c2)
%
[V:1]  a>g      | fabc'     d'3b    |(af)ed ({c}B2)f>e|(dB)(AF)  (AB)(de)|     f2  Te>d           d2:|
[V:2]  f>e      | dfga      f3 g    |(fd)AF ({A}G2)d>A|(FG)(FD)  (FG)(FA)|     d2  TA>F           F2:|

